Newaita-dark/actions/scalable/archive-insert-directory.svg

<?xml version="1.0" encoding="UTF-8"?>
<svg xmlns="http://www.w3.org/2000/svg" xmlns:xlink="http://www.w3.org/1999/xlink" width="512pt" height="512pt" viewBox="0 0 512 512" version="1.1">
<g id="surface1">
<path style=" stroke:none;fill-rule:nonzero;fill:rgb(74.117649%,74.117649%,74.117649%);fill-opacity:1;" d="M 84.675781 46.335938 C 61.21875 46.335938 42.335938 65.21875 42.335938 88.675781 L 42.335938 427.375 C 42.335938 450.828125 61.21875 469.710938 84.675781 469.710938 L 423.375 469.710938 C 446.828125 469.710938 465.710938 450.828125 465.710938 427.375 L 465.710938 88.675781 C 465.710938 65.21875 446.828125 46.335938 423.375 46.335938 Z M 95.257812 78.089844 L 412.789062 78.089844 C 424.515625 78.089844 433.957031 87.53125 433.957031 99.257812 L 433.957031 416.789062 C 433.957031 428.515625 424.515625 437.957031 412.789062 437.957031 L 95.257812 437.957031 C 83.53125 437.957031 74.089844 428.515625 74.089844 416.789062 L 74.089844 99.257812 C 74.089844 87.53125 83.53125 78.089844 95.257812 78.089844 Z M 95.257812 78.089844 "/>
<path style=" stroke:none;fill-rule:nonzero;fill:rgb(74.117649%,74.117649%,74.117649%);fill-opacity:1;" d="M 74.089844 242.148438 L 121.71875 242.148438 C 130.488281 242.148438 137.597656 248.644531 137.597656 256.65625 L 137.597656 259.390625 C 137.597656 267.40625 130.488281 273.902344 121.71875 273.902344 L 74.089844 273.902344 C 65.320312 273.902344 58.214844 267.40625 58.214844 259.390625 L 58.214844 256.65625 C 58.214844 248.644531 65.320312 242.148438 74.089844 242.148438 Z M 74.089844 242.148438 "/>
<path style=" stroke:none;fill-rule:nonzero;fill:rgb(74.117649%,74.117649%,74.117649%);fill-opacity:1;" d="M 391.621094 242.148438 L 439.25 242.148438 C 448.019531 242.148438 455.125 248.644531 455.125 256.65625 L 455.125 259.390625 C 455.125 267.40625 448.019531 273.902344 439.25 273.902344 L 391.621094 273.902344 C 382.851562 273.902344 375.746094 267.40625 375.746094 259.390625 L 375.746094 256.65625 C 375.746094 248.644531 382.851562 242.148438 391.621094 242.148438 Z M 391.621094 242.148438 "/>
<path style=" stroke:none;fill-rule:nonzero;fill:rgb(74.117649%,74.117649%,74.117649%);fill-opacity:1;" d="M 391.621094 162.765625 L 439.25 162.765625 C 448.019531 162.765625 455.125 169.261719 455.125 177.273438 L 455.125 180.007812 C 455.125 188.023438 448.019531 194.519531 439.25 194.519531 L 391.621094 194.519531 C 382.851562 194.519531 375.746094 188.023438 375.746094 180.007812 L 375.746094 177.273438 C 375.746094 169.261719 382.851562 162.765625 391.621094 162.765625 Z M 391.621094 162.765625 "/>
<path style=" stroke:none;fill-rule:nonzero;fill:rgb(74.117649%,74.117649%,74.117649%);fill-opacity:1;" d="M 391.621094 321.53125 L 439.25 321.53125 C 448.019531 321.53125 455.125 328.027344 455.125 336.039062 L 455.125 338.773438 C 455.125 346.789062 448.019531 353.285156 439.25 353.285156 L 391.621094 353.285156 C 382.851562 353.285156 375.746094 346.789062 375.746094 338.773438 L 375.746094 336.039062 C 375.746094 328.027344 382.851562 321.53125 391.621094 321.53125 Z M 391.621094 321.53125 "/>
<path style=" stroke:none;fill-rule:nonzero;fill:rgb(74.117649%,74.117649%,74.117649%);fill-opacity:1;" d="M 74.089844 162.765625 L 121.71875 162.765625 C 130.488281 162.765625 137.597656 169.261719 137.597656 177.273438 L 137.597656 180.007812 C 137.597656 188.023438 130.488281 194.519531 121.71875 194.519531 L 74.089844 194.519531 C 65.320312 194.519531 58.214844 188.023438 58.214844 180.007812 L 58.214844 177.273438 C 58.214844 169.261719 65.320312 162.765625 74.089844 162.765625 Z M 74.089844 162.765625 "/>
<path style=" stroke:none;fill-rule:nonzero;fill:rgb(74.117649%,74.117649%,74.117649%);fill-opacity:1;" d="M 74.089844 321.53125 L 121.71875 321.53125 C 130.488281 321.53125 137.597656 328.027344 137.597656 336.039062 L 137.597656 338.773438 C 137.597656 346.789062 130.488281 353.285156 121.71875 353.285156 L 74.089844 353.285156 C 65.320312 353.285156 58.214844 346.789062 58.214844 338.773438 L 58.214844 336.039062 C 58.214844 328.027344 65.320312 321.53125 74.089844 321.53125 Z M 74.089844 321.53125 "/>
<path style=" stroke:none;fill-rule:nonzero;fill:rgb(14.901961%,65.098041%,60.392159%);fill-opacity:1;" d="M 185.226562 242.148438 L 322.824219 242.148438 C 331.589844 242.148438 338.699219 248.644531 338.699219 256.65625 L 338.699219 259.390625 C 338.699219 267.40625 331.589844 273.902344 322.824219 273.902344 L 185.226562 273.902344 C 176.457031 273.902344 169.347656 267.40625 169.347656 259.390625 L 169.347656 256.65625 C 169.347656 248.644531 176.457031 242.148438 185.226562 242.148438 Z M 185.226562 242.148438 "/>
<path style=" stroke:none;fill-rule:nonzero;fill:rgb(14.901961%,65.098041%,60.392159%);fill-opacity:1;" d="M 269.902344 189.226562 L 269.902344 326.824219 C 269.902344 335.589844 263.40625 342.699219 255.390625 342.699219 L 252.65625 342.699219 C 244.644531 342.699219 238.148438 335.589844 238.148438 326.824219 L 238.148438 189.226562 C 238.148438 180.457031 244.644531 173.351562 252.65625 173.351562 L 255.390625 173.351562 C 263.40625 173.351562 269.902344 180.457031 269.902344 189.226562 Z M 269.902344 189.226562 "/>
</g>
</svg>

<svg xmlns="http://www.w3.org/2000/svg" width="512pt" height="512pt" viewBox="0 0 512 512"><path d="M84.676 46.336c-23.457 0-42.34 18.883-42.34 42.34v338.699c0 23.453 18.883 42.336 42.34 42.336h338.699c23.453 0 42.336-18.883 42.336-42.336v-338.7c0-23.456-18.883-42.34-42.336-42.34zM95.258 78.09h317.531a21.122 21.122 0 0 1 21.168 21.168v317.531a21.122 21.122 0 0 1-21.168 21.168H95.258a21.122 21.122 0 0 1-21.168-21.168V99.258A21.122 21.122 0 0 1 95.258 78.09zm0 0" fill="#bdbdbd"/><path d="M74.09 242.148h47.629c8.77 0 15.879 6.497 15.879 14.508v2.735c0 8.015-7.11 14.511-15.88 14.511H74.09c-8.77 0-15.875-6.496-15.875-14.511v-2.735c0-8.011 7.105-14.508 15.875-14.508zm0 0M391.621 242.148h47.629c8.77 0 15.875 6.497 15.875 14.508v2.735c0 8.015-7.105 14.511-15.875 14.511h-47.629c-8.77 0-15.875-6.496-15.875-14.511v-2.735c0-8.011 7.106-14.508 15.875-14.508zm0 0M391.621 162.766h47.629c8.77 0 15.875 6.496 15.875 14.507v2.735c0 8.015-7.105 14.512-15.875 14.512h-47.629c-8.77 0-15.875-6.497-15.875-14.512v-2.735c0-8.011 7.106-14.507 15.875-14.507zm0 0M391.621 321.531h47.629c8.77 0 15.875 6.496 15.875 14.508v2.734c0 8.016-7.105 14.512-15.875 14.512h-47.629c-8.77 0-15.875-6.496-15.875-14.512v-2.734c0-8.012 7.106-14.508 15.875-14.508zm0 0M74.09 162.766h47.629c8.77 0 15.879 6.496 15.879 14.507v2.735c0 8.015-7.11 14.512-15.88 14.512H74.09c-8.77 0-15.875-6.497-15.875-14.512v-2.735c0-8.011 7.105-14.507 15.875-14.507zm0 0M74.09 321.531h47.629c8.77 0 15.879 6.496 15.879 14.508v2.734c0 8.016-7.11 14.512-15.88 14.512H74.09c-8.77 0-15.875-6.496-15.875-14.512v-2.734c0-8.012 7.105-14.508 15.875-14.508zm0 0" fill="#bdbdbd"/><path d="M185.227 242.148h137.597c8.766 0 15.875 6.497 15.875 14.508v2.735c0 8.015-7.11 14.511-15.875 14.511H185.227c-8.77 0-15.88-6.496-15.88-14.511v-2.735c0-8.011 7.11-14.508 15.88-14.508zm0 0" fill="#26a69a"/><path d="M269.902 189.227v137.597c0 8.766-6.496 15.875-14.511 15.875h-2.735c-8.011 0-14.508-7.11-14.508-15.875V189.227c0-8.77 6.497-15.875 14.508-15.875h2.735c8.015 0 14.511 7.105 14.511 15.875zm0 0" fill="#26a69a"/></svg>
